communes/3603.svg

<?xml version="1.0" encoding="UTF-8"?>
<!DOCTYPE svg  PUBLIC '-//W3C//DTD SVG 1.1//EN'  'http://www.w3.org/Graphics/SVG/1.1/DTD/svg11.dtd'>
<svg width="438" height="480" viewBox="21 15 438 480" xmlns="http://www.w3.org/2000/svg">
<metadata>
<rdf:RDF xmlns:dc="http://purl.org/dc/elements/1.1/" xmlns:rdf="http://www.w3.org/1999/02/22-rdf-syntax-ns#">
<rdf:Description dc:date="2006-11-01" dc:format="image/svg+xml" dc:language="de" dc:title="Wappen Vals (CH-GR)">
<dc:creator rdf:resource="http://de.wikipedia.org/wiki/Benutzer:Bernina"/>
</rdf:Description>
</rdf:RDF>
</metadata>
<title>Wappen Vals (CH-GR)</title>
<defs>
<clipPath id="a">
<path d="m360 4140a3240 3240 0 0 0 6480 0v-3870h-6480v3870z"/>
</clipPath>
<style type="text/css"><![CDATA[
  .Rand1 { stroke: #202020; stroke-width:15; }
  .Rand2 { stroke: #202020; stroke-width:30; }
  .Rand3 { stroke: #202020; stroke-width:45; }
  .Rand6 { stroke: #202020; stroke-width:90; }
  .Schwarz { fill: #000000; }
  .Gold { fill: #ffef00; }
  ]]></style>
</defs>
<g transform="scale(.066667)" fill="none" fill-rule="evenodd" stroke-miterlimit="10" stroke-width="10">
<g clip-path="url(#a)">
<path class="Gold" d="m-225-315 7740 7740v-7740h-7740z"/>
<path class="Schwarz" d="m-225-315v7740h7740l-7740-7740z"/>
<path class="Schwarz Rand1" d="m2976 592-382 382 636 636-510 508 382 382 510-508 508 508-508 510 382 382 508-510 510 510-510 508 382 382 510-508 636 636 382-382-636-636 508-510-382-382-508 510-510-510 510-508-382-382-510 508-508-508 508-510-382-382-508 510-636-636z"/>
<g transform="rotate(-45 3870,5985)">
<path class="Gold Rand2" d="m4140 5085v-2160h270v540h720v-270h-360v-270h360v-270h-360v-270h360v-270h-360v-270h360v-270h-720v630h-270v-630h-540v3510h540z"/>
<path class="Gold Rand2" d="m2880 5985a450 450 0 0 0 327.4 432.98l-57.4 287.02 287.02-57.4a450 450 0 0 0 865.96 0l287.02 57.4-57.4-287.02a450 450 0 0 0 327.4-432.98 450 450 0 0 0-327.4-432.98l57.4-287.02-287.02 57.4a450 450 0 0 0-865.96 0l-287.02-57.4 57.4 287.02a450 450 0 0 0-327.4 432.98z"/>
<path class="Gold Rand2" d="m3768.4 5883.4a450 450 0 0 0 203.26 0 450 450 0 0 0-11.63 101.63 450 450 0 0 0 11.63 101.63 450 450 0 0 0-203.26 0 450 450 0 0 0 11.63-101.63 450 450 0 0 0-11.63-101.63z"/>
<path class="Schwarz Rand1" d="m3150 5985a180 180 0 0 0 335.88 90h114.12l180 180v114.12a180 180 0 0 0-90 155.88 180 180 0 0 0 360 0 180 180 0 0 0-90-155.88v-114.12l180-180h114.12a180 180 0 0 0 335.88-90 180 180 0 0 0-335.88-90h-114.12l-180-180v-114.12a180 180 0 0 0 90-155.88 180 180 0 0 0-360 0 180 180 0 0 0 90 155.88v114.12l-180 180h-114.12a180 180 0 0 0-335.88 90z"/>
<path class="Gold Rand2" d="m3691 5085h359a180 180 0 0 0 0-360h-359a180 180 0 0 0 0 360z"/>
</g>
<path class="Rand3" d="m-225-315 7740 7740"/>
</g>
<path class="Rand6" d="m360 4140a3240 3240 0 0 0 6480 0v-3870h-6480v3870z"/>
</g>
</svg>

<?xml version="1.0" encoding="iso-8859-1"?>
<!DOCTYPE svg PUBLIC "-//W3C//DTD SVG 1.1//EN" "http://www.w3.org/Graphics/SVG/1.1/DTD/svg11.dtd">
<!-- Auto-generated by fig2svg tool
     Date: Wed Nov  1 08:21:09 2006 -->
<svg xmlns="http://www.w3.org/2000/svg"
     width="438" height="480" viewBox="21 15 438 480">
<metadata>
<rdf:RDF xmlns:rdf="http://www.w3.org/1999/02/22-rdf-syntax-ns#"
         xmlns:dc="http://purl.org/dc/elements/1.1/">
<rdf:Description
 dc:title="Wappen Vals (CH-GR)"
 dc:date="2006-11-01"
 dc:format="image/svg+xml"
 dc:language="de">
<dc:creator rdf:resource="http://de.wikipedia.org/wiki/Benutzer:Bernina" />
</rdf:Description>
</rdf:RDF>
</metadata>
<title>
Wappen Vals (CH-GR)
</title>
<defs>
<clipPath id="clippath">
<path d="M360,4140 A3240,3240 0.0 0 0 6840,4140 L6840,270 L360,270 L360,4140 Z" />
</clipPath>
<style type="text/css">
  <![CDATA[
  .Rand1 { stroke: #202020; stroke-width:15; }
  .Rand2 { stroke: #202020; stroke-width:30; }
  .Rand3 { stroke: #202020; stroke-width:45; }
  .Rand6 { stroke: #202020; stroke-width:90; }
  .Schwarz { fill: #000000; }
  .Gold { fill: #ffef00; }
  ]]>
</style>
</defs>
<g stroke="none" stroke-miterlimit="10" stroke-width="10"
   stroke-linecap="butt" stroke-linejoin="miter"
   fill="none" fill-rule="evenodd" transform="scale(0.066667)">
<g clip-path="url(#clippath)">
<path id="feldo-1" class="Gold"
      d="M-225,-315 L7515,7425 L7515,-315 L-225,-315 Z" />
<path id="feldu-1" class="Schwarz"
      d="M-225,-315 L-225,7425 L7515,7425 L-225,-315 Z" />
<path id="belmont-1" class="Schwarz Rand1"
      d="M2976,592 L2594,974 L3230,1610 L2720,2118 L3102,2500 L3612,1992
         L4120,2500 L3612,3010 L3994,3392 L4502,2882 L5012,3392 L4502,3900
         L4884,4282 L5394,3774 L6030,4410 L6412,4028 L5776,3392 L6284,2882
         L5902,2500 L5394,3010 L4884,2500 L5394,1992 L5012,1610 L4502,2118
         L3994,1610 L4502,1100 L4120,718 L3612,1228 L2976,592 Z" />
<g transform="rotate(-45 3870,5985)">
<path id="bart-1" class="Gold Rand2"
      d="M4140,5085 L4140,2925 L4410,2925 L4410,3465 L5130,3465 L5130,3195
         L4770,3195 L4770,2925 L5130,2925 L5130,2655 L4770,2655 L4770,2385
         L5130,2385 L5130,2115 L4770,2115 L4770,1845 L5130,1845 L5130,1575
         L4410,1575 L4410,2205 L4140,2205 L4140,1575 L3600,1575 L3600,5085
         L4140,5085 Z" />
<path id="griff-1" class="Gold Rand2"
      d="M2880,5985 A450,450 0.0 0 0 3207.40,6417.98 L3150,6705 L3437.02,6647.60
         A450,450 0.0 0 0 4302.98,6647.60 L4590,6705 L4532.60,6417.98
         A450,450 0.0 0 0 4860,5985 A450,450 0.0 0 0 4532.60,5552.02
         L4590,5265 L4302.98,5322.40 A450,450 0.0 0 0 3437.02,5322.40
         L3150,5265 L3207.40,5552.02 A450,450 0.0 0 0 2880,5985 Z" />
<path id="griff-2" class="Gold Rand2"
      d="M3768.37,5883.37 A450,450 0.0 0 0 3971.63,5883.37
         A450,450 0.0 0 0 3960,5985 A450,450 0.0 0 0 3971.63,6086.63
         A450,450 0.0 0 0 3768.37,6086.63 A450,450 0.0 0 0 3780,5985
         A450,450 0.0 0 0 3768.37,5883.37 Z" />
<path id="loch-1" class="Schwarz Rand1"
      d="M3150,5985 A180,180 0.0 0 0 3485.88,6075 L3600,6075 L3780,6255
         L3780,6369.12 A180,180 0.0 0 0 3690,6525 A180,180 0.0 0 0 4050,6525
         A180,180 0.0 0 0 3960,6369.12 L3960,6255 L4140,6075 L4254.12,6075
         A180,180 0.0 0 0 4590,5985 A180,180 0.0 0 0 4254.12,5895
         L4140,5895 L3960,5715 L3960,5600.88 A180,180 0.0 0 0 4050,5445
         A180,180 0.0 0 0 3690,5445 A180,180 0.0 0 0 3780,5600.88
         L3780,5715 L3600,5895 L3485.88,5895 A180,180 0.0 0 0 3150,5985 Z" />
<path id="bund-1" class="Gold Rand2"
      d="M3691,5085 L4050,5085 A180.00,180.00 0.0 0 0 4050,4725 L3691,4725
         A180,180 0.0 0 0 3691,5085 Z" />
</g>
<path id="linie-1" class="Rand3" d="M-225,-315 L7515,7425" />
</g>
<path id="clip-boundary" class="Rand6"
      d="M360,4140 A3240,3240 0.0 0 0 6840,4140 L6840,270 L360,270 L360,4140 Z" />
</g>
</svg>
